X:1
T:He Is Just the Same Today
T:He Is Just the Same Today
T:Andrew Linnaeus Byers
T:Jacob Whistler Byers, 1897
T:Public Domain Courtesy of the Cyber Hymnal™
T:Public Domain Courtesy of the Cyber Hymnal™
C:Andrew Linnaeus Byers
Z:Public Domain
Z:Courtesy of the Cyber Hymnal™
%%score ( 1 2 ) ( 3 4 )
L:1/8
Q:1/4=90
M:4/4
K:D
V:1 treble 
V:2 treble 
V:3 bass 
V:4 bass 
V:1
 D>[DE] | [DF]>[FA] [DF]>[CE] [CE]<D D>[DF] | [FA]>[^E^G] [FA]>[=GB] [FA]2 [FA]>[FA] | %3
w: 1.~Have you|ev- er heard of Je- sus, How He|came from Heav’n to earth, With a|
w: 2.~Do you|see the peo- ple ga- ther Round that|great and ho- ly Man, Bring- ing|
w: 3.~Is it|true that ev- ery sick- ness May be|laid at Je- sus’ feet? All my|
w: 4.~Oh, that|pre- cious, lov- ing Je- sus! His com-|pas- sion still the same, T’ward poor|
 [GB]>[GB] [GB]>[Gd] [GB]<[FA] [DF]>[DF] | [DF]>[DF] [EG]>[DF] !fermata![CE]2 D>[DE] | %5
w: name of might- y vir- tue, Though by|ve- ry hum- ble birth? When the|
w: all the sick and suf- fering, Com- ing|to Him all who can? See Him|
w: trou- ble, care and sor- row, And I|rest in joy com- plete? Yes, my|
w: sin- ful, suf- fering mor- tals Who seek|re- fuge in His name. Heed the|
 [DF]>[FA] [DF]>[CE] [CE]<D D>[DF] | [FA]>[FA] [GB]>[^E^G] [FA]2 [FA]>[FA] | %7
w: world was held in bond- age, Un- der|Sa- tan’s dis- mal sway, Je- sus|
w: look with great com- pas- sion, As they|faint- ed by the way! How He|
w: bro- ther, ev- ery sad- ness, If by|faith to Him you pray, He’ll re-|
w: pre- sent in- vi- ta- tion, Oh, you|need not stay a- way! Just re-|
 [Fd]>[Fd] [Fd]>[FA] [GB]<!fermata![FA] [DA]>[GB] | [FA]>D [DF]>[CE] D2 ||"^Refrain" D>[DF] | %10
w: healed their dread dis- eas- es— He is|just the same to- day.||
w: called them gent- ly to Him! He is|just the same to- day.|He is|
w: move, with ten- der mer- cy, For He’s|just the same to- day.||
w: ceive His heal- ing fa- vor, For He’s|just the same to- day.||
 [FA]4- [FA]>[DF] D>[DB] | [DA]6 [DF]>[Fd] | [Ec]4- [Ec]>[FA] [GB]>[Gc] | d6 [Fd]>[GB] | %14
w: ||||
w: just * the same to-|day, He is|just * the same to-|day; Yes, He|
w: ||||
w: ||||
 [FA]>[DF] D>[DF] [FA]2 [DA]>[DA] | [DB]>[DG] [DE]>[DF] !fermata![DG]2 [GB]>[GB] | %16
w: ||
w: healed in Gal- i- lee, Set the|suf- fering cap- tives free, And He’s|
w: ||
w: ||
 [FA]4- [FA]>D [DF]>[CE] | D4- [A,D]2 |] %18
w: ||
w: just * the same to-|day. *|
w: ||
w: ||
V:2
 D3/2 x/ | x9/2 D3/2 D3/2 x/ | x8 | x8 | x6 D3/2 x/ | x9/2 D3/2 D3/2 x/ | x8 | x8 | %8
 x3/2 D/ x3/2 D2 x/ || D3/2 x/ | x6 D3/2 x/ | x8 | x8 | (F>FG>G F2) x2 | x2 D3/2 x9/2 | x8 | %16
 x11/2 D/ x2 | D>A,B,>B, x2 |] %18
V:3
 [D,F,]>[D,G,] | [D,A,]>[D,A,] [A,,A,]>[A,,G,] [D,G,]<[D,F,] [D,F,]>[D,A,] | %2
w: ||
 [D,D]>[D,D] [D,D]>[D,D] [D,D]2 [D,D]>[D,D] | [G,D]>[G,D] [G,D]>[G,B,] [D,D]<[D,A,] [D,A,]>[D,A,] | %4
w: ||
 [D,A,]>[D,A,] [C,A,]>[D,A,] !fermata![A,,A,]2 [D,F,]>[D,G,] | %5
w: |
 [D,A,]>[D,A,] [A,,A,]>[A,,G,] [D,G,]<[D,F,] [D,F,]>[D,A,] | %6
w: |
 [D,D]>[D,D] [D,D]>[D,D] [D,D]2 [D,D]>[D,D] | %7
w: |
 [D,A,]>[D,A,] [D,A,]>[D,D] [D,D]<!fermata![D,D] [F,D]>[G,D] | [A,D]>A, [A,,A,]>[A,,G,] [D,F,]2 || %9
w: |* He * * *|
 [D,F,]>[D,A,] | [D,D]>[D,D] [D,D]>[D,D] [D,D]2 [D,F,]>[D,G,] | %11
w: is just|the same to- day, He is just|
 [D,F,]>[D,F,] [D,F,]>[D,F,] [D,F,]2 [D,A,]>[D,A,] | A,>A, A,>A, A,2 [A,,A,]>[A,,A,] | %13
w: the same to- day, He is just|the same to- day, He is just|
 [D,A,]>[D,A,] [D,B,]>[D,B,] [D,A,]2 [D,A,]>[D,A,] | %14
w: the same to- day, And * *|
 [F,A,]>[D,A,] [D,F,]>[D,A,] [D,D]2 [D,F,]>[D,F,] | %15
w: |
 [G,,G,]>[G,,G,] [G,,G,]>[G,,B,] !fermata![G,,B,]2 [G,,D]>[G,,D] | D2 D2 A,2 [A,,A,]>[A,,G,] | %17
w: * * * * * He’s just|the same, He is just|
 F,>F, G,>G, [D,F,]2 |] %18
w: the same to- day. *|
V:4
 x2 | x8 | x8 | x8 | x8 | x8 | x8 | x8 | x3/2 A,/ x4 || x2 | x8 | x8 | A,>A, A,>A, A,2 x2 | x8 | %14
 x8 | x8 | (A,,>A,,) (A,,>A,,) (A,,>A,,) x2 | D,4- x2 |] %18

